X:1
T:Liverpool Jack's -- Reel
R:reel
N:160
B:Ryan's Mammoth Collection
Z:Contributed by Ray Davies,  ray:davies99.freeserve.co.uk
M:2/4
L:1/16
K:F
vcF((3.F.F.F) cFAF | defg afef | cF((3.F.F.F) cFAc | dfcA AGG2 |
 cF((3.F.F.F) cFAF | defg afef | cF((3.F.F.F) cFAc | dfcA AGG2 |]
.g2ag f2c2 | dfcf dfcf | .g2ag fdde       | fdcA AGG2 |
.g2ag f2c2 | dfcf dfcf | .a.f((3gfe) fdde | fdcA AGG2 |]
